X:20
T:Bold Doherty
M:6/8
L:1/8
Q:120
S:THSP
R:jig
D:
Z:
K:Em
B|:"Em"EFG ABc|B2E GAB|"C"c2A BcB|"D"AGE EB,E|
"Em"EFG ABc|B2E GAB|"C"c2A BcB|1 "D"AGE "Em"E2B:|2 "D"AGE "Em"E2A|:
"Em"B2e edB|"D"dBG ABc|"Em"B2e edB|"D"dBA A2A
|1 "Em"B2e edB|"D"dBA GAB|c2A BcB|"Em"AGE E2A
:|2 "G"G2g gfe|dBA GAB|"D"c2A BcB|"Em"AGE E2|]
